public/avatar/shoe/4.svg

<svg xmlns:xlink="http://www.w3.org/1999/xlink" height="38.3" width="36.05" xmlns="http://www.w3.org/2000/svg"><use height="15.8" transform="translate(9.1 11.95)" width="22.75" xlink:href="#a"/><defs><g id="a"><path d="M-4.75-1.3Q-2.2-2.7.95-2.35q1.8.15 3.4 1l-2.9.85-3.95-.15-.2-.05-2.05-.6m10.5 2.95 1.7 3.55-1.6 1.75-.9.55-1.8.85q-.55.15-1.15.4-.1-1.45.15-2.85l.2-.75.35-.85.1-.15q1.35-1.65 2.95-2.5" fill="#004566" fill-rule="evenodd" transform="translate(14.7 2.9)"/><path d="m-4.75-1.3 2.05.6.2.05 3.95.15 2.9-.85 1.4 3q-1.6.85-2.95 2.5l-.1.15-.35.85-.2.75Q1.9 7.3 2 8.75l-3.2.9-3.65.7q-4.9.6-8.4-.7l-.55-.3-.25-.35q-.55-.95 1.1-2.95L-12.1 5l5.45-5.1 1.9-1.2m-5.8 8.5 1.6-2.3 2.35-2.35L-4 .45l1.5-1.1L-4 .45l-2.6 2.1-2.35 2.35-1.6 2.3" fill="#69c" fill-rule="evenodd" transform="translate(14.7 2.9)"/><path d="M7.45 5.2q.2 1.9-.05 2.3l-.1.15q-1.85 2.25-8.4 3.9-7.25 1.75-12.05 0l-.55-.3q-.35-.35-.35-2.25l.25.35.55.3q3.5 1.3 8.4.7l3.65-.7 3.2-.9q.6-.25 1.15-.4l1.8-.85.9-.55 1.6-1.75" fill="#fff" fill-rule="evenodd" transform="translate(14.7 2.9)"/><path d="M4.35-1.35q-1.6-.85-3.4-1-3.15-.35-5.7 1.05l-1.9 1.2L-12.1 5l-.85 1.05q-1.65 2-1.1 2.95 0 1.9.35 2.25l.55.3q4.8 1.75 12.05 0 6.55-1.65 8.4-3.9l.1-.15q.25-.4.05-2.3l-1.7-3.55-1.4-3m-6.85.7L-4 .45l-2.6 2.1-2.35 2.35-1.6 2.3" fill="none" stroke="#000" stroke-linecap="round" stroke-linejoin="round" transform="translate(14.7 2.9)"/><path d="M-6.1-.6h-.45l-.7.3-.3.7.3.7m-.6.5-1.4-.15q-.45 0-.7.3-.35.25-.35.7l.3.7m-.45.7-1.2-.1q-.45 0-.7.3-.35.25-.35.7l.3.7" fill="none" stroke="#000" stroke-linecap="round" stroke-linejoin="round" transform="translate(14.7 2.9)"/><path d="M-8.5 4.3h-.05q1.6.5 3 1.85.3.25.3.7l-.25.7q-.3.3-.7.3l-.75-.25q-1-1-2.2-1.4l-2.25-.4-.7-.3-.3-.7q0-.45.35-.7.25-.3.7-.3l2.85.5m5.35-.45q.3.25.3.7 0 .4-.25.7-.3.3-.7.3l-.75-.25q-1.05-1-2.25-1.45L-9 3.5l-.7-.3-.3-.7q0-.45.35-.7.25-.3.7-.3l2.75.45h.05q1.65.55 3 1.9m-3.8-4.1.7-.3 2.65.4q1.7.5 3.15 1.9.3.25.3.7l-.25.7-.7.3-.75-.25q-1.05-1.05-2.3-1.45h-.05l-2.05-.3-.7-.3-.3-.7.3-.7" fill="#fff" fill-rule="evenodd" transform="translate(14.7 2.9)"/></g></defs></svg>

<?xml version="1.0" encoding="UTF-8" standalone="no"?>
<svg xmlns:xlink="http://www.w3.org/1999/xlink" height="38.3px" width="36.05px" xmlns="http://www.w3.org/2000/svg">
  <g transform="matrix(1.0, 0.0, 0.0, 1.0, 23.8, 14.85)">
    <use height="15.8" transform="matrix(1.0, 0.0, 0.0, 1.0, -14.7, -2.9)" width="22.75" xlink:href="#shape0"/>
  </g>
  <defs>
    <g id="shape0" transform="matrix(1.0, 0.0, 0.0, 1.0, 14.7, 2.9)">
      <path d="M-4.75 -1.3 Q-2.2 -2.7 0.95 -2.35 2.75 -2.2 4.35 -1.35 L1.45 -0.5 -2.5 -0.65 -2.7 -0.7 -4.75 -1.3 M5.75 1.65 L7.45 5.2 5.85 6.95 4.95 7.5 3.15 8.35 Q2.6 8.5 2.0 8.75 1.9 7.3 2.15 5.9 L2.35 5.15 2.7 4.3 2.8 4.15 Q4.15 2.5 5.75 1.65" fill="#004566" fill-rule="evenodd" stroke="none"/>
      <path d="M-4.75 -1.3 L-2.7 -0.7 -2.5 -0.65 1.45 -0.5 4.35 -1.35 5.75 1.65 Q4.15 2.5 2.8 4.15 L2.7 4.3 2.35 5.15 2.15 5.9 Q1.9 7.3 2.0 8.75 L-1.2 9.65 -4.85 10.35 Q-9.75 10.95 -13.25 9.65 L-13.8 9.35 -14.05 9.0 Q-14.6 8.05 -12.95 6.05 L-12.1 5.0 -6.65 -0.1 -4.75 -1.3 M-10.55 7.2 L-8.95 4.9 -6.6 2.55 -4.0 0.45 -2.5 -0.65 -4.0 0.45 -6.6 2.55 -8.95 4.9 -10.55 7.2" fill="#6699cc" fill-rule="evenodd" stroke="none"/>
      <path d="M7.45 5.2 Q7.65 7.1 7.4 7.5 L7.3 7.65 Q5.45 9.9 -1.1 11.55 -8.35 13.3 -13.15 11.55 L-13.7 11.25 Q-14.05 10.9 -14.05 9.0 L-13.8 9.35 -13.25 9.65 Q-9.75 10.95 -4.85 10.35 L-1.2 9.65 2.0 8.75 Q2.6 8.5 3.15 8.35 L4.95 7.5 5.85 6.95 7.45 5.2" fill="#ffffff" fill-rule="evenodd" stroke="none"/>
      <path d="M4.35 -1.35 Q2.75 -2.2 0.95 -2.35 -2.2 -2.7 -4.75 -1.3 L-6.65 -0.1 -12.1 5.0 -12.95 6.05 Q-14.6 8.05 -14.05 9.0 -14.05 10.9 -13.7 11.25 L-13.15 11.55 Q-8.35 13.3 -1.1 11.55 5.45 9.9 7.3 7.65 L7.4 7.5 Q7.65 7.1 7.45 5.2 L5.75 1.65 4.35 -1.35 M-2.5 -0.65 L-4.0 0.45 -6.6 2.55 -8.95 4.9 -10.55 7.2" fill="none" stroke="#000000" stroke-linecap="round" stroke-linejoin="round" stroke-width="1.0"/>
      <path d="M-6.1 -0.6 L-6.55 -0.6 -7.25 -0.3 -7.55 0.4 -7.25 1.1 M-7.85 1.6 L-9.25 1.45 Q-9.7 1.45 -9.95 1.75 -10.3 2.0 -10.3 2.45 L-10.0 3.15 M-10.45 3.85 L-11.65 3.75 Q-12.1 3.75 -12.35 4.05 -12.7 4.3 -12.7 4.75 L-12.4 5.45" fill="none" stroke="#000000" stroke-linecap="round" stroke-linejoin="round" stroke-width="1.0"/>
      <path d="M-8.5 4.3 L-8.55 4.3 Q-6.95 4.8 -5.55 6.15 -5.25 6.4 -5.25 6.85 L-5.5 7.55 Q-5.8 7.85 -6.2 7.85 L-6.95 7.6 Q-7.95 6.6 -9.15 6.2 L-11.4 5.8 -12.1 5.5 -12.4 4.8 Q-12.4 4.35 -12.05 4.1 -11.8 3.8 -11.35 3.8 L-8.5 4.3 M-3.15 3.85 Q-2.85 4.1 -2.85 4.55 -2.85 4.95 -3.1 5.25 -3.4 5.55 -3.8 5.55 L-4.55 5.3 Q-5.6 4.3 -6.8 3.85 L-9.0 3.5 -9.7 3.2 -10.0 2.5 Q-10.0 2.05 -9.65 1.8 -9.4 1.5 -8.95 1.5 L-6.2 1.95 -6.15 1.95 Q-4.5 2.5 -3.15 3.85 M-6.95 -0.25 L-6.25 -0.55 -3.6 -0.15 Q-1.9 0.35 -0.45 1.75 -0.15 2.0 -0.15 2.45 L-0.4 3.15 -1.1 3.45 -1.85 3.2 Q-2.9 2.15 -4.15 1.75 L-4.2 1.75 -6.25 1.45 -6.95 1.15 -7.25 0.45 -6.95 -0.25" fill="#ffffff" fill-rule="evenodd" stroke="none"/>
    </g>
  </defs>
</svg>
